X: 38144
T: Sporting Nell
R: reel
M: 4/4
K: Gmajor
dB|AD (3FED A2 dB|ABAG EFGB|AD D2 A2 dB|ABGE EDDB|
ADFD A2 dB|ABAG EFGB|AD (3FED A2 dB|ABGE EDDd||
^cdec d3A|(3B^cd ef gedA|^cdec deed|^cAGE EDDd|
^cdec d3A|(3B^cd ef gedg|eaag eged|^cAGE ED D2||

